X: 367
T: The Sailor's Reprieve
%R: jig
Z: 2014 John Chambers <jc:trillian.mit.edu>
B: Preston "Twenty four Country Dances for the Year 1799" p.164 #1
F: http://www.vwml.org/browse/browse-collections-dance-tune-books/browse-prestons1799# 2014-8-10
N: Corrected typo: One "hand" is spelled "hant".
M: 6/8
L: 1/8
K: F
"_p"(c/B/) |\
AFF "_f"TF>EF | AFF "_f"TF>EF |\
dGG "_f"TG^FG | "_f"dGG G2"_p"(c/B/) |\
AFF "_f"TF>EF | AFF "_f"TF>EF |\
def c>dc | AFF F2 :|
|: "_p"f/g/ |\
"_f"afc cfa | gec "_p"c2e |\
"_f"fdB Bdf | "_p"ecA A2c |\
"^f"dBG GBd | "^p"cAF F2c |\
"^f"d>ef c>dc | "^ff"AFF F2 :|
% - - - - - - - - - - - - - - - - - - - - - - - - -
%%begintext align
%% 1st Lady turn 2d Gent: with right hand, 2d Lady with
%% Left, 1st Gent: turn 2d Lady with right hand, & 2d Gent:
%% with left, 1st Cu: cross over one Cu: & turn, then
%% hands across quite round at top.
%%endtext
% - - - - - - - - - - - - - - - - - - - - - - - - -

%%sep 1 1 500
%%sep 1 1 500
